!!!!SEGMENT: pl-cz--iii-744--001-006_zebrowski-marcin-jozef--missa-ex-d-agnus-dei.krn
!!!cenid: 17xx:2348
!!!COM: Żebrowski, Marcin Józef
!!!COM-rismID: pe30020322
!!!CDT: 1702-1770/06/29
!!!CNT: Polish
!!!OPR: Missa ex D
!!!OTL: Agnus Dei
!!!OMV: 006
!!!PDT: 1782
!!!AGN: Sacred; Mass
!!!YEC: Copyright 2022 Narodowy Instytut Fryderyka Chopina (https://polishscores.org)
!!!YEM: License CC-BY-4.0 (https://creativecommons.org/licenses/by/4.0)
!!!SMS-siglum: PL-CZ
!!!SMS-shelfmark: III-744
!!!SMS-shelfwork: 001-006 M
!!!SMS-variant:
!!!SMS-altvar:
!!!NIFC-rismSourceID: 300033496
!!!NIFC-rismChildID: 300033496
!!!NIFC-islandoraID: pl-cz:25261
!!!URL-pdf-islandora: https://repozytorium.nifc.pl/islandora/object/pl-cz%3A25261/datastream/PDF/view
!!!URL-scan: https://polish.musicsources.pl/pl/lokalizacje/galeria/rekopisy/1474 @EN{Scan on Polish Music Sources Website} @PL{Skany w portalu Dziedzictwo Muzyki Polskiej w otwartym dostępie}
!!!IIIF:
!!!ONB-nifc: UWAGA: części Mszy: 1. Kyrie, 2. Gloria, 3. Patrem, 4. Sanctus, 5. Benedictus, 6. Agnus Dei
!!!AIN: 1 bass 2 clrno 1 organ 1 soprn 2 violn
!!!key: D
**kern	**fba	**kern	**dynam	**kern	**dynam	**kern	**text	**kern	**text	**kern	**kern
*	*	*group3	*	*group3	*	*group2	*	*group2	*	*group1	*group1
*part7	*	*part6	*	*part5	*	*part4	*	*part3	*	*part2	*part1
*staff7	*	*staff6	*	*staff5	*	*staff4	*	*staff3	*	*staff2	*staff1
*I"Organo	*	*I"Violino Secundo.	*	*I"Violino Primo.	*	*I"Baſso.	*	*I"Canto.	*	*I"Clarino Secundo. ex D ad libitum.	*I"Clarino Primo. ex D: ad libitum.
*I'org	*	*I'vl 2	*	*I'vl 1	*	*I'B	*	*I'S	*	*I'clno 2 in D	*I'clno 1 in D
*Iorgan	*	*Ivioln	*	*Ivioln	*	*Ibass	*	*Isoprn	*	*Iclrno	*Iclrno
*ICklav	*	*ICstr	*	*ICstr	*	*ICvox	*	*ICvox	*	*ICbras	*ICbras
*IGcont	*	*	*	*	*	*	*	*	*	*	*
*clefF4	*	*clefG2	*	*clefG2	*	*clefF4	*	*clefC1	*	*clefG2	*clefG2
*	*	*	*	*	*	*	*	*	*	*ITrd-1c-2	*ITrd-1c-2
*k[f#c#]	*	*k[f#c#]	*	*k[f#c#]	*	*k[f#c#]	*	*k[f#c#]	*	*k[f#c#]	*k[f#c#]
*D:	*	*D:	*	*D:	*	*D:	*	*D:	*	*D:	*D:
*M4/4	*	*M4/4	*	*M4/4	*	*M4/4	*	*M4/4	*	*M4/4	*M4/4
*met(c)	*	*met(c)	*	*met(c)	*	*met(c)	*	*met(c)	*	*met(c)	*met(c)
=1	=1	=1	=1	=1	=1	=1	=1	=1	=1	=1	=1
!LO:TX:a:t=And&colon; Solo.	!	!LO:TX:a:t=Andan&colon;	!	!LO:TX:a:t=And&colon;	!	!	!	!LO:TX:t=P:problem=znaki f# cc#	!	!LO:TX:a:t=andante	!LO:TX:a:t=adagio
8D\L	.	1r	.	1r	.	4.F#\	A-	4.dd\	A-	0r	0r
8E\	.	.	.	.	.	.	.	.	.	.	.
8F#\	6	.	.	.	.	.	.	.	.	.	.
8D\J	.	.	.	.	.	8F#\	-gnus	8a\	-gnus	.	.
!LO:TX:t=P:problem=mixed beam	!	!	!	!	!	!	!	!	!	!	!
8G\L	.	.	.	.	.	8G\	De-	8b\	De-	.	.
8D\	.	.	.	.	.	16F#\	-i	16a\	-i	.	.
.	.	.	.	.	.	16G\	qvi	16b\	qvi	.	.
.	.	.	.	.	.	8qqF#/	.	8qqa/	.	.	.
8E\	7	.	.	.	.	4ET\	tol-	4g\	tol-	.	.
8AA/J	7	.	.	.	.	.	.	.	.	.	.
=2	=2	=2	=2	=2	=2	=2	=2	=2	=2	=2	=2
8D\L	.	4.ff#\	.	4.ddd\	.	4D\	-lis	4f#/	-lis	.	.
8E\	.	.	.	.	.	.	.	.	.	.	.
8F#\	6	.	.	.	.	4r	.	4r	.	.	.
8D\J	.	8ff#\	.	8aa\	.	.	.	.	.	.	.
!LO:TX:t=P:problem=mixed beam	!	!	!	!	!	!	!	!	!	!	!
8G\L	.	8gg\L	.	8bb\L	.	2r	.	2r	.	.	.
8D\	.	16ff#\L	.	16aa\L	.	.	.	.	.	.	.
.	.	16gg\JJ	.	16bb\JJ	.	.	.	.	.	.	.
.	.	8qqff#/	.	8qqaa/	.	.	.	.	.	.	.
8E\	7	4eeT\	.	4ggT\	.	.	.	.	.	.	.
8AA/J	7	.	.	.	.	.	.	.	.	.	.
=3	=3	=3	=3	=3	=3	=3	=3	=3	=3	=3	=3
.	.	8qqee/	.	8qqgg/	.	.	.	.	.	.	.
4D/	.	4dd\	.	4ff#\	.	2r	.	8r	.	1r	1r
.	.	.	.	.	.	.	.	8a\	qvi	.	.
4C#/	6	4r	.	4r	.	.	.	8a\	tol-	.	.
.	.	.	.	.	.	.	.	16b\	-lis	.	.
.	.	.	.	.	.	.	.	16cc#\	pec-	.	.
*	*	*	*	*	*	*	*	*2\right	*	*	*
2BB/	5	2r	.	2r	.	8r	.	2dd\	-ca-	.	.
.	.	.	.	.	.	8F#\	qui	.	.	.	.
.	.	.	.	.	.	8F#\	tol-	.	.	.	.
.	6\	.	.	.	.	16G#X\	-lis	.	.	.	.
.	.	.	.	.	.	16G#\	pec-	.	.	.	.
=4	=4	=4	=4	=4	=4	=4	=4	=4	=4	=4	=4
!LO:TX:t=P:problem=mixed beam	!	!	!	!	!	!	!	!	!	!	!
8F#\L	5	2r	.	2r	.	8A\	-ca-	8cc#\	.	2r	2r
8D\	6	.	.	.	.	8B\	-ta	8dd\	-ta	.	.
8E\	#	.	.	.	.	4G#Xt\	mun-	4bT\	mun-	.	.
8EE/J	.	.	.	.	.	.	.	.	.	.	.
!LO:TX:b:t=Tut&colon;	!	!	!	!	!	!	!	!	!	!	!
4AA/	.	8r	.	8r	.	4A\	-di	4a\	-di	8r	8r
.	.	8cc#\L|	.	8ee\L|	.	.	.	.	.	16a/LL	16ee\LL
.	.	.	.	.	.	.	.	.	.	16a/JJ	16ee\JJ
4A\	.	8cc#\|	.	8ee\|	.	8A\	mi-	8ee\	mi-	8a/L	8ee\L
.	.	8cc#\J|	.	8ee\J|	.	8A\	-se-	8ee\	-se-	8a/J	8ee\J
=5	=5	=5	=5	=5	=5	=5	=5	=5	=5	=5	=5
*	*	*	*	*	*	*	*	*	*	*	*2\right
!	!	!LO:TX:t=P:problem=mixed beam	!	!LO:TX:t=P:problem=mixed beam	!	!	!	!	!	!	!
4A\	.	16.cc#\LL	.	16.cc#\LL	.	4A\	-re-	4ee\	-re-	2a/	2ee\
.	.	32A/K	.	32A/K	.	.	.	.	.	.	.
.	.	16.c#/	.	16.c#/	.	.	.	.	.	.	.
.	.	32e/JJk	.	32e/JJk	.	.	.	.	.	.	.
4AA/	.	16.a\LL	.	16.a\LL	.	4A\	-re	4ee\	-re	.	.
.	.	32cc#\K	.	32cc#\K	.	.	.	.	.	.	.
.	.	16.ee\	.	16.ee\	.	.	.	.	.	.	.
.	.	32aa\JJk	.	32aa\JJk	.	.	.	.	.	.	.
!	!	!LO:TX:t=P:problem=mixed beam	!	!LO:TX:t=P:problem=mixed beam	!	!	!	!	!	!	!
8r	.	8A#X/L	.	8A#X/L	.	8r	.	8r	.	8r	8r
8A#X\L	7 5	8ee\|	.	8gg\|	.	16A#X\	mi-	16cc#\	mi-	8ee\L|	8gg\L|
.	.	.	.	.	.	16A#\	-se-	16cc#\	-se-	.	.
!	!	!	!	!	!	!LO:LB:g=original	!	!	!	!	!
8A#\	.	8ee\|	.	8gg\|	.	8A#\	-re-	8cc#\	-re-	8ee\|	8gg\|
8A#\J	.	8ee\J|	.	8gg\J|	.	8A#\	-re	8cc#\	-re	8ee\J|	8gg\J|
!	!	!	!	!	!	!	!	!LO:LB:g=original	!	!	!
=6	=6	=6	=6	=6	=6	=6	=6	=6	=6	=6	=6
*	*	*	*	*	*	*	*	*	*	*2\right	*
!	!	!LO:TX:t=P:problem=mixed beam	!	!LO:TX:t=P:problem=mixed beam	!	!	!	!	!	!	!
4B\	.	16.dd\LL	.	16.ff#\LL	.	4B\	no-	4dd\	no-	2dd\	2ff#\
.	.	32B/K	.	32B/K	.	.	.	.	.	.	.
.	.	16.d/	.	16.d/	.	.	.	.	.	.	.
.	.	32f#/JJk	.	32f#/JJk	.	.	.	.	.	.	.
4BB/	.	16.b\LL	.	16.b\LL	.	4BB/	-bis	4dd\	-bis	.	.
.	.	32dd\K	.	32dd\K	.	.	.	.	.	.	.
.	.	16.ff#\	.	16.ff#\	.	.	.	.	.	.	.
.	.	32bb\JJk	.	32bb\JJk	.	.	.	.	.	.	.
!	!	!LO:LB:g=original	!	!LO:LB:g=original	!	!	!	!	!	!	!
!	!	!LO:TX:t=P:problem=mixed beam	!	!LO:TX:t=P:problem=mixed beam	!	!	!	!	!	!	!
8r	.	8e#X/L	.	8e#X/L	.	8r	.	8r	.	2r	2r
8E#X\L	7 5	8dd\|	.	8gg#X\|	.	16E#X\	mi-	16b\	mi-	.	.
.	.	.	.	.	.	16E#\	-se-	16b\	-se-	.	.
8E#\	.	8dd\|	.	8gg#\|	.	8E#\	-re-	8b\	-re-	.	.
8E#\J	.	8dd\J|	.	8gg#\J|	.	8E#\	-re	8b\	-re	.	.
=7	=7	=7	=7	=7	=7	=7	=7	=7	=7	=7	=7
4En\	+4r 2	4cc#\	.	(8aa#X\L	.	4En\	no-	4cc#\	no-	4f#/	4f#/
.	.	.	.	8ff#\	.	.	.	.	.	.	.
*	*	*2\right	*	*	*	*	*	*	*	*	*
8D\L	6	2b\	.	8bb\)	.	8D\L	.	2b\	.	8f#/L	8f#/L
8E\J	.	.	.	8cc#\J|	.	8E\J	.	.	.	8f#/J	8f#/J
.	.	.	.	8qqdd/	.	.	.	.	.	.	.
*	*	*	*	*2\right	*	*	*	*	*	*	*
4F#\	4	.	.	2cc#t\	.	(4F#\	.	.	.	8f#/L	8f#/L
.	.	.	.	.	.	.	.	.	.	16f#/L	16f#/L
.	.	.	.	.	.	.	.	.	.	16f#/JJ	16f#/JJ
4FF#/	#	4a#Xt/	.	.	.	4FF#/)	.	4a#Xt\	.	8f#/L	8f#/L
.	.	.	.	.	.	.	.	.	.	8f#/J	8f#/J
=8	=8	=8	=8	=8	=8	=8	=8	=8	=8	=8	=8
4BB/	.	4b\	.	4b\	.	4BB/	-bis	4b,\	-bis	4f#/	4f#/
4GG/	.	8dd\L	.	8bb\L	.	8G\	A-	8b\	A-	4r	4r
.	.	8gg\J	.	8bb\J	.	8G\	-gnus	8b\	-gnus	.	.
!	!	!	!	!LO:TX:t=P:problem=mixed beam	!	!	!	!	!	!	!
.	.	8qqgg/	.	.	.	.	.	.	.	.	.
4D\	.	4ff#\	.	16.aa\LL	.	4d\	De-	8b\L	De-	2r	2r
.	.	.	.	32d/K	.	.	.	.	.	.	.
.	.	.	.	16.f#/	.	.	.	8a\J	.	.	.
.	.	.	.	32a/JJk	.	.	.	.	.	.	.
4DD/	.	16r	.	16.dd\LL	.	4D/	-i	4a\	-i	.	.
.	.	16d/LL	.	.	.	.	.	.	.	.	.
.	.	.	.	32f#\K	.	.	.	.	.	.	.
.	.	16.f#/	.	16.a\	.	.	.	.	.	.	.
.	.	32a/JJk	.	32dd\JJk	.	.	.	.	.	.	.
!LO:LB:g=original	!	!	!	!	!	!	!	!	!	!	!
=9	=9	=9	=9	=9	=9	=9	=9	=9	=9	=9	=9
8r	.	16.dd\LL	.	16.ff#\LL	.	8r	.	8r	.	4.dd\	4.ff#\
.	.	32ff#\K	.	32aa\K	.	.	.	.	.	.	.
8D\L	.	16.dd\	.	16.ff#\	.	8d\	qvi	8ff#\	qvi	.	.
.	.	32a\JJk	.	32dd\JJk	.	.	.	.	.	.	.
8D\	.	16.f#\LL	.	16.a\LL	.	8D/	tol-	8ff#\	tol-	.	.
.	.	32dd\K	.	32ff#\K	.	.	.	.	.	.	.
8D\J	.	16.a\	.	16.dd\	.	16D/	-lis	16ff#\	-lis	8dd\	8ff#\
.	.	.	.	.	.	16D/	pec-	16ff#\	pec-	.	.
.	.	32f#\JJk	.	32a\JJk	.	.	.	.	.	.	.
!	!	!LO:TX:t=P:problem=mixed beam	!	!LO:TX:t=P:problem=mixed beam	!	!	!	!	!	!	!
4A\	.	16.e/LL	.	16.A/LL	.	4A\	-ca-	4ee\	-ca-	4.a/	4ee\
.	.	32ee\K	.	32aa\K	.	.	.	.	.	.	.
.	.	16.cc#\	.	16.ee\	.	.	.	.	.	.	.
.	.	32a\JJk	.	32cc#\JJk	.	.	.	.	.	.	.
4AA/	.	16.a/LL	.	16.a/LL	.	4AA/	-ta	4ee\	-ta	.	4aa\
.	.	32e/K	.	32e/K	.	.	.	.	.	.	.
.	.	16.c#/	.	16.c#/	.	.	.	.	.	8ee\	.
.	.	32A/JJk	.	32A/JJk	.	.	.	.	.	.	.
!	!	!	!	!LO:LB:g=original	!	!	!	!	!	!	!
=10	=10	=10	=10	=10	=10	=10	=10	=10	=10	=10	=10
!	!	!	!	!LO:TX:t=P:problem=mixed beam	!	!	!	!	!	!	!
2BB/	6\	8r	.	16.G#X/LL	.	2BB/	mun-	2dd\	mun-	2ee\	2gg#X\
.	.	.	.	32bb\K	.	.	.	.	.	.	.
.	.	8dd\	.	16.gg#X\	.	.	.	.	.	.	.
.	.	.	.	32ee\JJk	.	.	.	.	.	.	.
.	.	16.dd\LL	.	16.dd\LL	.	.	.	.	.	.	.
.	.	32dd\K	.	32b\K	.	.	.	.	.	.	.
.	.	16.b\	.	16.g#X\	.	.	.	.	.	.	.
.	.	32g#X\JJk	.	32e\JJk	.	.	.	.	.	.	.
.	.	.	.	8qqdd/	.	.	.	.	.	.	.
4AA/	.	4e/	.	4cc#\	.	4AA/	-di	4cc#\	-di	4ee\	4aa\
8F#\L	6	8dd\L	.	8aa\L	.	8F#\	mi-	8dd\	mi-	4r	4r
8F#\J	.	8dd\J	.	8aa\J	.	8F#\	-ſe-	8dd\	-se-	.	.
!	!	!LO:LB:g=original	!	!	!	!LO:LB:g=original	!	!	!	!	!LO:LB:g=original
=11	=11	=11	=11	=11	=11	=11	=11	=11	=11	=11	=11
!	!	!	!	!	!	!	!	!	!	!	!LO:TX:a:t=5
4E#X\	7	4dd\	.	4gg#X\	.	4E#X\	-re-	4dd\	-re-	00r	00r
4E#\	.	4dd\	.	4gg#\	.	4E#\	-re	4dd\	-re	.	.
!	!	!	!	!	!	!	!	!LO:LB:g=original	!	!	!
4r	.	4r	.	4r	.	4r	.	4r	.	.	.
8En\L	6	8cc#\L	.	8gg#\L	.	8En\	mi-	8cc#\	mi-	.	.
8E\J	.	8cc#\J	.	8gg#\J	.	8E\	-se-	8cc#\	-se-	.	.
=12	=12	=12	=12	=12	=12	=12	=12	=12	=12	=12	=12
4D#X\	7	4cc#\	.	4ff#\	.	4D#X\	-re-	4cc#\	-re-	.	.
4D#\	.	4cc#\	.	4ff#\	.	4D#\	-re	4cc#\	-re	.	.
4r	.	4r	.	4r	.	4r	.	4r	.	.	.
8Dn\L	6	8b\L	.	8ff#\L	.	8Dn\	mi-	8b\	mi-	.	.
8D\J	.	8b\J	.	8ff#\J	.	8D\	-se-	8b\	-se-	.	.
=13	=13	=13	=13	=13	=13	=13	=13	=13	=13	=13	=13
4C#/	7 #	4b\	.	4ee#X\	.	4C#\	-re-	4b\	-re-	.	.
4F#\	.	4a/	.	2ff#\	.	4F#\	-re	4a\	-re	.	.
2C#/	5 #4r	2g#Xt/	.	.	.	(4c#\	no-	2g#Xt/	no-	.	.
.	.	.	.	4ee#Xt\	.	4C#/)	.	.	.	.	.
=14	=14	=14	=14	=14	=14	=14	=14	=14	=14	=14	=14
4FF#/	.	4f#/	.	4ff#\	.	4F#\	-bis	4f#/	-bis	.	.
!LO:TX:b:t=Solo.	!	!	!	!	!	!	!	!	!	!	!
4F#\	6	4r	.	4r	.	4r	.	8dd\	A-	.	.
.	.	.	.	.	.	.	.	8a\	-gnus	.	.
8G\L	.	2r	.	2r	.	2r	.	8b\	De-	.	.
8F#\J	6	.	.	.	.	.	.	16a\	-i	.	.
.	.	.	.	.	.	.	.	16b\	qvi	.	.
.	.	.	.	.	.	.	.	8qqa/	.	.	.
!LO:TX:t=P:problem=mixed beam	!	!	!	!	!	!	!	!	!	!	!
8E\L	7	.	.	.	.	.	.	4g\	tol-	.	.
8AA/J	7	.	.	.	.	.	.	.	.	.	.
=15	=15	=15	=15	=15	=15	=15	=15	=15	=15	=15	=15
4D/	.	1r	.	1r	.	4r	.	4f#\	-lis	1r	1r
4C#/	6	.	.	.	.	8A\	A-	4r	.	.	.
.	.	.	.	.	.	8E\	-gnus	.	.	.	.
8D/L	.	.	.	.	.	8F#\	De-	2r	.	.	.
8C#/J	6	.	.	.	.	16E\	-i	.	.	.	.
.	.	.	.	.	.	16F#\	qvi	.	.	.	.
!LO:TX:t=P:problem=mixed beam	!	!	!	!	!	!	!	!	!	!	!
.	.	.	.	.	.	8qqE/	.	.	.	.	.
8BB/L	7	.	.	.	.	4DT\	tol-	.	.	.	.
8E\J	7 #	.	.	.	.	.	.	.	.	.	.
=16	=16	=16	=16	=16	=16	=16	=16	=16	=16	=16	=16
4AA/	.	8r	.	2r	.	4C#/	-lis.	8r	.	2r	2r
.	.	8a/	.	.	.	.	.	8a\	qvi	.	.
4r	.	8a/L	.	.	.	4r	.	8a\	tol-	.	.
.	.	16b/L	.	.	.	.	.	16b\	-lis	.	.
.	.	16cc#/JJ	.	.	.	.	.	16cc#\	pec-	.	.
!	!	!	!	!	!	!LO:LB:g=original	!	!	!	!	!
8r	.	[2dd\	.	8r	.	8r	.	[2dd\	-ca-	2ff#\	2aa\
!LO:TX:b:t=Tut&colon;	!	!	!	!	!	!	!	!	!	!	!
8D\	.	.	.	8ff#\	.	8D\	qvi	.	.	.	.
!	!	!	!	!LO:LB:g=original	!	!	!	!	!	!	!
8D\L	.	.	.	8ff#\L	.	8D\	tol-	.	.	.	.
16F#\L	6	.	.	16aa\L	.	16F#\	-lis	.	.	.	.
16G\JJ	.	.	.	16bb\JJ	.	16G\	pec-	.	.	.	.
!LO:LB:g=original	!	!	!	!	!	!	!	!LO:LB:g=original	!	!LO:LB:g=original	!
=17	=17	=17	=17	=17	=17	=17	=17	=17	=17	=17	=17
!	!	!	!	!	!	!	!	!LO:TX:t=P:problem=brak zakończenia ligatury	!	!	!
4A\	4	8dd\L]	.	4.ee\	.	4A\	-ca-	4dd\]	.	4ee\	4aa\
.	.	8b\J	.	.	.	.	.	.	.	.	.
*2\right	*	*	*	*	*	*2\right	*	*	*	*	*
2A\	9	4cc#\	.	.	.	2A\	-ta	4cc#\	-ta	4r	4r
.	.	.	.	8ee\	.	.	.	.	.	.	.
.	.	8qqcc#/	.	.	.	.	.	.	.	.	.
.	2	4.b\	.	16.ff#\LL	.	.	.	2bT\	mun-	4r	4r
.	.	.	.	32ee\K	.	.	.	.	.	.	.
.	.	.	.	16.dd\	.	.	.	.	.	.	.
.	.	.	.	32cc#\JJk	.	.	.	.	.	.	.
4G#X\	6	.	.	16.b\LL	.	4G#X\	mun-	.	.	8ee\L	8ee\L
.	.	.	.	32ee\K	.	.	.	.	.	.	.
.	.	8b\	.	16.dd\	.	.	.	.	.	8ee\J	8ee\J
.	.	.	.	32ee\JJk	.	.	.	.	.	.	.
!	!	!LO:LB:g=original	!	!	!	!	!	!	!	!	!
=18	=18	=18	=18	=18	=18	=18	=18	=18	=18	=18	=18
4A\	.	4a/	.	8cc#\L	.	4A\	-di	4a\	-di	4a/	4ee\
.	.	.	.	8a\	.	.	.	.	.	.	.
4AA/	.	8cc#\L	.	8ee\	.	4r	.	4r	.	8a/L	8ee\L
.	.	8cc#\J	.	8ee\J	.	.	.	.	.	8a/J	8ee\J
!LO:TX:b:t=Canto Solo.	!	!	!	!	!	!	!	!	!	!	!
2AA/	.	(8dd\L	.	(8ff#\L	.	2r	.	2r	.	8dd\L	8ff#\L
.	.	8cc#\	.	8ee\	.	.	.	.	.	8a\	8ee\
.	.	8ee\)	.	8gg\)	.	.	.	.	.	8ee\	8gg\
.	.	8dd\J|	.	8ff#\J|	.	.	.	.	.	8dd\J	8ff#\J
=19	=19	=19	=19	=19	=19	=19	=19	=19	=19	=19	=19
[1AA	.	8cc#\L	.	8ee\L	.	4r	.	4r	.	8a/L	8ee\L
.	.	8cc#\J	.	8ee\J	.	.	.	.	.	8a/J	8ee\J
.	.	4r	.	4r	.	8c#\	Do-	8ee\	Do-	4r	4r
.	.	.	.	.	.	8c#\	-na	8ee\	-na	.	.
.	.	2r	.	2r	.	(8d\L	no-	(8ff#\L	no-	2r	2r
.	.	.	.	.	.	8c#\	.	8ee\J)	.	.	.
.	.	.	.	.	.	8e\J)	.	(8gg\L	-bis	.	.
.	.	.	.	.	.	8d\	-bis	8ff#\J)	.	.	.
=20	=20	=20	=20	=20	=20	=20	=20	=20	=20	=20	=20
!	!	!	!	!	!	!	!	!	!	!	!LO:TX:a:t=3
1AA_	.	4r	.	4r	.	8c#\	pa-	8ee\	pa-	0r	0r
!	!	!	!LO:DY:b:t=p&colon;	!	!LO:DY:b:t=p&colon;	!	!	!	!	!	!
.	.	.	p	.	p	8c#\	-cem	8ee\	-cem	.	.
.	.	8c#/L	.	8e/L	.	4r	.	4r	.	.	.
.	.	8c#/J	.	8e/J	.	.	.	.	.	.	.
.	.	(8d/L	.	(8fn/L	.	2r	.	2r	.	.	.
.	.	8c#/	.	8e/	.	.	.	.	.	.	.
.	.	8e/)	.	8g/)	.	.	.	.	.	.	.
.	.	8d/J|	.	8fn/J|	.	.	.	.	.	.	.
!	!	!	!	!LO:LB:g=original	!	!	!	!	!	!	!
=21	=21	=21	=21	=21	=21	=21	=21	=21	=21	=21	=21
1AA]	.	8c#/L	.	8e/L	.	4r	.	4r	.	.	.
.	.	8c#/J	.	8e/J	.	.	.	.	.	.	.
.	.	4r	.	4r	.	8E\	do-	8cc#\	do-	.	.
.	.	.	.	.	.	8E\	-na	8cc#\	-na	.	.
!	!	!	!	!	!	!LO:LB:g=original	!	!	!	!	!
.	.	2r	.	2r	.	(8Fn\L	no-	(8dd\L	no-	.	.
.	.	.	.	.	.	8D\	.	8cc#\J)	.	.	.
.	.	.	.	.	.	8G\J)	.	(8ee\L	-bis	.	.
.	.	.	.	.	.	8Fn\|	-bis	8dd\J)	.	.	.
=22	=22	=22	=22	=22	=22	=22	=22	=22	=22	=22	=22
8A\L	.	1r;	.	1r;	.	(16E\LL	pa-	8cc#\	pa-	1r	1r
.	.	.	.	.	.	16A\JJ)	.	.	.	.	.
8AA/J	.	.	.	.	.	8AA/	-cem.	8cc#\	-cem.	.	.
4r	.	.	.	.	.	4r	.	4r	.	.	.
!LO:TX:b:i:rj:t=Dona nobis Da Capo\nKyrie allö&colon; ut supra.	!	!LO:TX:b:i:rj:t=Dona nobis Da Capo Kyrie Allegro ut supra.	!	!LO:TX:b:i:rj:t=Dona nobis Kyrie Allegro Da Capo ut supra.	!	!LO:TX:b:i:rj:t=Dona nobis, Kyrie Allŏ ut supra.	!	!LO:TX:b:i:rj:t=Dona nobis ut Kyrie Allŏ.	!	!LO:TX:b:i:rj:t=Dona nobis ut Kyrie Allö&colon;	!LO:TX:b:i:rj:t=Dona nobis ut Kÿrie Allegro.
2r	.	.	.	.	.	2r;	.	2r	.	.	.
==	==	==	==	==	==	==	==	==	==	==	==
*-	*-	*-	*-	*-	*-	*-	*-	*-	*-	*-	*-
!!!system-decoration: [(g1)][(g2)][(g3)]s7
!!!RDF**kern: | = vertical stroke
!!!ENC: Filip Voros
!!!END: 2022-03-29
!!!ENC: Marta Lawrence
!!!END: 2022-04-07
